X: 139035
T: St. PATRICKS DAY
Q: "Irish Jig."
R: Jig.
%R: jig
B: James Kerr "Merry Melodies" v.1 p.39 s.0 #35
Z: 2016 John Chambers <jc:trillian.mit.edu>
M: 6/8
L: 1/8
K: G
uD !segno!|\
GAG GBc | ded dBG | AGA BGD | EFE uE2uD |\
GAG GBc | dge dBG | AGA BGD | vE2vF uG2 H:|
ud |\
vdef ug2ue | vf2vd edB | def g2e | fed e2d |\
def gag | fed edB | def gag | fed ef"_D.C."g |]

%%sep 1 1 500
%%sep 1 1 500

